icon-themes/sifr_svg/cmd/lc_datafilterautofilter.svg

<svg viewBox="0 0 24 24" xmlns="http://www.w3.org/2000/svg"><path d="m5 2v16.9l-2.3007812-2.5875c-.1715502-.18267-.4424148-.3125-.6992188-.3125h-1v.400391.599609c0 .3.1007815.55232.3007812.75.7 1.024166 2.7992188 3.25 3.6992188 4.25h2l3.699219-4.25c.2-.19768.300781-.45.300781-.75v-.599609-.400391h-1c-.25689 0-.5276786.12983-.6992188.3125l-2.3007812 2.5875v-16.9zm3 0v1l2 2 2-2v-1zm5 0v1l2 2 2-2v-1zm5 0v1l2 2 2-2v-1zm-9 4c-.552262.00006-1 .4477977-1 1v1c.01563 1.0155238.11647.8958418 1 2l4 4.998047h4l4-4.998047c.88353-1.1041582 1-1.0001045 1-2v-1c0-.5522023-.447738-.99994-1-1zm4 9.998047v5.001953c.000351.890547 1.077037 1.336525 1.707031.707031l2-2c.187536-.187491.292969-.441859.292969-.707031v-3.001953z" fill="#555753"/></svg>

<svg xmlns="http://www.w3.org/2000/svg" viewBox="0 0 24 24">
  <path
     style="fill:#555753"
     d="M 5,2 V 18.9 L 2.6992188,16.3125 C 2.5276686,16.12983 2.256804,16 2,16 H 1 V 16.400391 17 c 0,0.3 0.1007815,0.55232 0.3007812,0.75 C 2.0007812,18.774166 4.1,21 5,22 h 2 l 3.699219,-4.25 C 10.899219,17.55232 11,17.3 11,17 V 16.400391 16 H 10 C 9.74311,16 9.4723214,16.12983 9.3007812,16.3125 L 7,18.9 V 2 Z m 3,0 v 1 l 2,2 2,-2 V 2 Z m 5,0 v 1 l 2,2 2,-2 V 2 Z m 5,0 v 1 l 2,2 2,-2 V 2 Z M 9,6 c -0.552262,6e-5 -1,0.4477977 -1,1 v 1 c 0.01563,1.0155238 0.11647,0.8958418 1,2 l 4,4.998047 h 4 L 21,10 C 21.88353,8.8958418 22,8.9998955 22,8 V 7 C 22,6.4477977 21.552262,6.00006 21,6 Z m 4,9.998047 V 21 c 3.51e-4,0.890547 1.077037,1.336525 1.707031,0.707031 l 2,-2 C 16.894567,19.51954 17,19.265172 17,19 v -3.001953 z"
     />
</svg>
